!!!!SEGMENT: pl-kc--40102-iii-1-saf--001-016_zielenski-mikolaj--offertoria-totius-anni-in-festo-annuntiationis-b-mariae-virg-ave-maria.krn
!!!cenid: 16xx:1494
!!!COM: Zieleński, Mikołaj
!!!COM-rismID: pe30013481
!!!CDT: <1611->1611
!!!CNT: Polish
!!!GTL: Offertoria totius anni
!!!OTL: In festo Annuntiationis B. Mariae Virg./Ave Maria
!!!OMV: 016
!!!PDT: 1611
!!!AGN: Sacred
!!!YEC: Copyright 2022 Narodowy Instytut Fryderyka Chopina (https://polishscores.org)
!!!YEM: License CC-BY-4.0 (https://creativecommons.org/licenses/by/4.0)
!!!SMS-siglum: PL-Kc
!!!SMS-shelfmark: 40102 III/1 Saf.
!!!SMS-shelfwork: 001-016 G
!!!SMS-variant:
!!!SMS-altvar:
!!!NIFC-rismSourceID: 990069886
!!!NIFC-rismChildID: 990069886
!!!NIFC-islandoraID: none
!!!URL-pdf-islandora:
!!!URL-scan: https://cyfrowe.mnk.pl/dlibra/publication/24235/edition/23926/content?ref=desc @EN{Scan on The National Museum in Krakow Website} @PL{Skany w portalu Biblioteka Cyfrowa Muzeum Narodowego w Krakowie}
!!!IIIF:
!!!ONB-nifc: UWAGA: str. 15-16. Uwaga: W xml metrum 2/1 do źródłowego C| i odpowiednio 3/1 do 3/2
!!!AIN: 4 organ
!!!key: a
**kern	**kern	**kern	**kern
*group1	*group1	*group1	*group1
*part4	*part3	*part2	*part1
*staff4	*staff3	*staff2	*staff1
*I""Organo	*I""Organo	*I""Organo	*I""Organo
*I''org	*I''org	*I''org	*I''org
*Iorgan	*Iorgan	*Iorgan	*Iorgan
*ICklav	*ICklav	*ICklav	*ICklav
*clefF5	*clefF4	*clefC4	*clefC2
*k[]	*k[]	*k[]	*k[]
*a:	*a:	*a:	*a:
*M2/1	*M2/1	*M2/1	*M2/1
*met(C|)	*met(C|)	*met(C|)	*met(C|)
=1	=1	=1	=1
!LO:TX:t=P:problem=błędny klucz, dopisany ołówkiem klucz subbasowy	!	!	!
!LO:TX:a:t=Aue Maria	!LO:TX:a:t=In feſto Annuntiationis B. Mariae Virg. A 7.	!	!
00r	1E	0r	00r
.	1.A	.	.
=2-	=2-	=2-	=2-
.	.	1E	.
!	!LO:TX:t=P:problem=# za nutą	!	!
.	2G#X\	.	.
.	2A\	[y1A	.
.	4AA/	.	.
.	4BB/	.	.
=3	=3	=3	=3
!	!	!LO:N:xstem:cue:vis=4	!
00r	4C/	2A\]	0r
.	4D/	.	.
.	4E\	2G#X/	.
.	4D/	.	.
.	4C/	1.A	.
.	4AA/	.	.
.	2D/	.	.
=4-	=4-	=4-	=4-
.	2BB/	.	1B
.	2BB/	2G#X/	.
.	1AA	2.A/	[y1e
.	.	4Gny/	.
=5	=5	=5	=5
!	!	!	!LO:N:xstem:cue:vis=4
00r	1D	4F/	2e\]
.	.	4G/	.
.	.	4A\	2d/
.	.	4B\	.
.	1AA	4c\	1e
.	.	4d\	.
.	.	1c	.
=6-	=6-	=6-	=6-
.	2F\	.	1.a
.	2F\	4B\	.
.	.	4A/	.
.	2.E\	2c\	.
.	.	2B\	2g#X\
.	4D\	.	.
=7	=7	=7	=7
*	*	*	*lig
1AA	4C/	2E/	1a
.	4BB/	.	.
.	4AA/	2c\	.
.	2A\	.	.
*	*	*	*col
1.E	.	1.B	2.b\
.	8G#X\	.	.
!	!LO:SIC:v:s=8F#\	!	!
.	8F\	.	.
.	4G#\	.	.
*	*	*	*Xlig
.	4A\	.	4a\
*	*	*	*Xcol
=8-	=8-	=8-	=8-
.	2B\	.	4g\
.	.	.	4e/
2D#X\	2F#X\	2B\	2.f#X\
1E	2Gny\	2.G/	.
.	.	.	4e/
.	2G\	.	[y2e/
.	.	4A/	.
=9	=9	=9	=9
!	!	!	!LO:N:xstem:cue
1BB	1F#X	2.B\	4e/]
.	.	.	8d/
.	.	.	8c/
.	.	.	2d#X/
.	.	4A/	.
1EE	2E\	4G#X/	2e/
!	!	!LO:SIC:v:s=4F#/	!
.	.	4F/	.
.	1E	2G#/	1b
=10-	=10-	=10-	=10-
1.AA	.	2A/	.
.	2E\	2E/	4a\
.	.	.	4g\
.	1E	[<1E	2a\
!	!	!	!LO:TX:t=P:problem=brak początku łuku
2GG#X/	.	.	(<2b\
*custos:AA	*custos:A	*custos:E	*custos:e
!!LO:LB:g=original
=11	=11	=11	=11
*lig	*	*	*
!	!	!LO:TX:t=P:problem=brak zakończenia ligatury	!
!	!	!LO:N:vis=1	!
1AA	2r	2E]	1.e)
.	1A	0.E	.
1EE	.	.	.
.	2G#X\	.	1e
*Xlig	*	*	*
=12-	=12-	=12-	=12-
2AA/	1A	.	.
2AA/	.	.	1a
1DD	1F#X	.	.
.	.	2D/	2f#X\
=13	=13	=13	=13
2GG/	1r	2D/	2.g\
2GG/	.	1G	.
.	.	.	4f\
1.C	1G	.	4e/
.	.	.	4d/
.	.	2E/	4e/
.	.	.	4c/
=14-	=14-	=14-	=14-
*	*	*lig	*
.	1GG	1D	1d
2BB/	.	.	.
2.C\	[y1C	1E	2c/
.	.	.	2e/
4BB/	.	.	.
*	*	*Xlig	*
=15	=15	=15	=15
!	!LO:N:xstem:cue:vis=4	!	!
2GG/	2C/]	0E	2e/
2GG/	2AA/	.	1a
1EE	1BB	.	.
.	.	.	2g#X\
=16-	=16-	=16-	=16-
1AA	1C	2r	1a
.	.	2.c\	.
2r	2r	.	1e
.	.	4c\	.
[y2AA/	[<2E\	2c\	.
=17	=17	=17	=17
!LO:N:xstem:cue	!	!	!
4AA/]	2E\]	0.c	2r
4AA/	.	.	.
2AA/	2E\	.	2.a\
1.FF	2AA/	.	.
.	.	.	4a\
.	2.F\	.	2a\
=18-	=18-	=18-	=18-
.	.	.	1f
.	8E\	.	.
.	8D\	.	.
2FF/	4C/	.	.
.	4D/	.	.
1CC	4E\	1c	1g
.	4D/	.	.
.	4E\	.	.
.	4F\	.	.
=19	=19	=19	=19
1GG	1.G	2r	2r
.	.	2.G/	2.d/
2r	.	.	.
.	.	4G/	4d/
2.DD/	4F\	2A/	2d/
.	4E\	.	.
=20-	=20-	=20-	=20-
.	1D	1A	1f
4DD/	.	.	.
2DD/	.	.	.
1AA	2E\	2A/	2e/
.	2AA/	2c\	2a\
=21	=21	=21	=21
2EE/	1E	2B\	2g#X\
2AA/	.	2A/	2a\
2D\	2D/	1A	1f#X
2DD/	2D/	.	.
=22-	=22-	=22-	=22-
2GG/	2D/	1G	1gny
2CC/	2E\	.	.
1GG	1D	2r	2r
.	.	2G/	2g\
=23	=23	=23	=23
0CC	0C	2G/	2e/
.	.	2A/	2f\
.	.	1G	1g
=24-	=24-	=24-	=24-
2r	2r	1A	1f
2.FF/	2.A\	.	.
.	.	1r	1r
4FF/	4A\	.	.
2DD/	2A\	.	.
=25	=25	=25	=25
2AA/	2c#X\	0r	0r
4FF/	4d\	.	.
2D\	2A\	.	.
2AA/	2B\	.	.
4C\	4A\	.	.
=26-	=26-	=26-	=26-
2BB/	4A\	1r	1r
.	8G\	.	.
.	8F\	.	.
2BB/	2G\	.	.
1AA	1A	2r	2r
.	.	[y2A/	[y2a\
=27	=27	=27	=27
!	!	!LO:N:xstem:cue	!LO:N:xstem:cue
00r	00r	4A/]	4a\]
.	.	4A/	4a\
.	.	2F#X/	2a\
.	.	2G/	2g\
.	.	4E/	4g\
.	.	2Fny/	2f\
=28-	=28-	=28-	=28-
.	.	.	.
.	.	2D/	2f\
.	.	4D/	4f\
.	.	[y1E	[y1e
=29	=29	=29	=29
!	!	!LO:N:xstem:cue:vis=4	!LO:N:xstem:cue:vis=4
0r	0r	2E/]	2e\]
.	.	2E/	2e/
.	.	1AA	1e
=30-	=30-	=30-	=30-
2r	2r	2r	2r
2.EE/	2.E\	2.B\	2.b\
4EE/	4E\	4B\	4b\
2EE/	2G\	2e\	2b\
=31	=31	=31	=31
2BB/	2F#X\	2d#X\	2b\
4EE/	4E\	4e\	4g#X\
2AA/	2E\	2c#X\	2a\
2DD/	2D/	2dny\	2a\
4DD/	4D/	4d\	4a\
=32-	=32-	=32-	=32-
2GG/	2D/	2.d\	2.b\
2GG/	2D/	.	.
.	.	4d\	4b\
2.C\	2.E\	2cny\	2gny\
.	.	2c\	2g\
4C\	4E\	.	.
=33	=33	=33	=33
2AA/	2A\	2c\	4a\
.	.	.	4a\
2GG#X/	1E	4e\	1b
.	.	4d\	.
1.AA	.	4c\	.
.	.	4B\	.
.	2A\	2c\	4a\
.	.	.	4g\
=34-	=34-	=34-	=34-
.	1E	2.c\	2a\
2AA/	.	.	2a\
.	.	4c\	.
[<1EE	[<1E	[y1B	2b\
.	.	.	2e/
=35	=35	=35	=35
!	!	!LO:N:xstem:cue:vis=4	!
1EE]	1E]	2B\]	2g#X\
.	.	2E/	2a\
*	*	*	*lig
0EE	2r	2G#X/	1b
.	4r	2A/	.
.	4E\	.	.
=36-	=36-	=36-	=36-
.	2G#X\	2B\	1e
.	4A\	2c\	.
.	2A\	.	.
*	*	*	*Xlig
!	!	!	!LO:TX:b:t=P:problem=zbędny początek ligatury
1E	.	1B	1e
.	8G#X\	.	.
!	!LO:SIC:v:s=8F#\	!	!
.	8F\	.	.
.	2G#\	.	.
*custos:AA	*custos:A	*custos:c	*custos:e
!!LO:PB:g=original
=37	=37	=37	=37
2r	2.A\	2c\	00r
2AA/	.	2e\	.
.	4c\	.	.
2C\	2c\	2e\	.
2D\	4B\	4d\	.
.	4A\	4c\	.
=38-	=38-	=38-	=38-
*lig	*	*	*
1E	2G#X\	2B\	.
.	2G#\	4e\	.
.	.	2e\	.
1F	2.A\	.	.
.	.	8d\	.
.	.	8c\	.
.	.	2d\	.
.	4B\	.	.
*Xlig	*	*	*
=39	=39	=39	=39
2.E\	2c\	1.e	2r
.	4B\	.	2e/
4E\	4A\	.	.
2E\	2B\	.	2g\
2C\	2.A\	2e\	2a\
=40-	=40-	=40-	=40-
1BB	.	2d\	1b
.	8G#X\	.	.
!	!LO:SIC:v:s=8F#\	!	!
.	8F\	.	.
.	2G#\	2B\	.
2AA/	2A\	2c\	2e/
2EE/	2B\	4B\	[<2g\
.	.	4B\	.
=41	=41	=41	=41
2GG/	1r	2B\	2g\]
2AA/	.	4A/	4f#X\
.	.	4G/	4e/
2BB/	2r	2F#X/	2d#X/
2EE/	2BB/	2G/	4e/
.	.	.	2e/
=42-	=42-	=42-	=42-
1BB	2BB/	1F#X	.
.	.	.	8d#X/
.	.	.	8c/
.	2BB/	.	2d#/
1EE	1E	2.E/	2e/
.	.	.	[y2b\
.	.	4B\	.
=43	=43	=43	=43
!	!	!	!LO:N:xstem:cue
2AA/	1.E	2c\	4b\]
.	.	.	4a\
2AA/	.	2c\	1a
0EE	.	1.B	.
.	2BB/	.	4g\
.	.	.	4f#X\
=44-	=44-	=44-	=44-
.	2BB/	.	2g\
.	2E\	2B\	2g\
1AA	1E	1c#X	1a
=45	=45	=45	=45
*M3/2	*M3/2	*M3/2	*M3/2
00.r	00.r	1A	1a
.	.	1E	1g#X
.	.	1A	1a
=46-	=46-	=46-	=46-
.	.	0D	0f#X
.	.	1G	1gny
=47-	=47-	=47-	=47-
00.r	00.r	1C	1g
.	.	1G	1g
.	.	1C	1e
=48-	=48-	=48-	=48-
.	.	0G	0d
.	.	1C	1e
=49	=49	=49	=49
00.r	00.r	0C	0e
.	.	1AA	1f#X
=50-	=50-	=50-	=50-
.	.	0E	0g
.	.	1F	1a
=51-	=51-	=51-	=51-
00.r	00.r	0.D	0.fny
=52-	=52-	=52-	=52-
.	.	0.C	0.e
=53	=53	=53	=53
1CC	1c	00.r	00.r
1GG	1B	.	.
1DD	1d	.	.
=54-	=54-	=54-	=54-
0AA	0c#X	.	.
1DD	1d	.	.
=55-	=55-	=55-	=55-
1DD	1d	00.r	00.r
1GG	1d	.	.
1GG	1B	.	.
=56-	=56-	=56-	=56-
0DD	0A	.	.
1GG	1B	.	.
=57	=57	=57	=57
0CC	0c	00.r	00.r
1FF	1A	.	.
=58-	=58-	=58-	=58-
1.DD	0.d	.	.
2EE/	.	.	.
2FF/	.	.	.
2GG/	.	.	.
=59-	=59-	=59-	=59-
1AA	1c	00.r	00.r
0EE	0B	.	.
=60-	=60-	=60-	=60-
0.AA	0.c	.	.
=61	=61	=61	=61
1AA	1A	1c#X	1a
1EE	1B	1e	1g#X
1AA	1A	1c#X	1a
=62-	=62-	=62-	=62-
0DD	0A	0d	0f#X
1GG	1B	1B	1gny
=63-	=63-	=63-	=63-
1CC	1E	1cny	1g
1GG	1G	1B	1g
1CC	1G	0c	1e
=64-	=64-	=64-	=64-
0GG	1.G	.	0d
.	.	1B	.
.	2F\	.	.
1CC	1E	1c	1e
=65	=65	=65	=65
0CC	0G	0c	0g
1GG	1G	1B	1d
=66-	=66-	=66-	=66-
0DD	1.F	0A	0f
.	2D/	.	.
1AA	1E	1A	1e
=67-	=67-	=67-	=67-
0FF	0F	0c	0a
0C	0G	0c	0g
=68-	=68-	=68-	=68-
.	.	.	.
1C	1C	1c	1e
1AA	1E	1c	1f#X
=69	=69	=69	=69
*M2/1	*M2/1	*M2/1	*M2/1
*met(C|)	*met(C|)	*met(C|)	*met(C|)
1.EE	2E\	2B\	2g#X\
.	2F#X\	2A/	2a\
.	2G#X\	2G#X/	2b\
2EE/	2A\	2c\	2e/
*custos:EE	*custos:B	*custos:B	*custos:g
!!LO:LB:g=original
=70	=70	=70	=70
0EE	2B\	2B\	2g#X\
.	2E\	2.e\	4a\
.	.	.	2a\
.	2.E\	.	.
.	.	4d\	8g#X\
!	!	!	!LO:SIC:v:s=8f#\
.	.	.	8f\
.	.	2B\	2g#\
.	4D/	.	.
=71	=71	=71	=71
2AA/	4C/	2c\	2a\
.	4BB/	.	.
1AA	4AA/	1c	1a
.	4BB/	.	.
.	4C/	.	.
.	4AA/	.	.
2GG#X/	1E	2B\	2b\
=72-	=72-	=72-	=72-
2AA/	.	2A/	2cc\
2AA/	4D/	2A/	2cc\
.	4C/	.	.
0BB	2D/	1r	0b
.	2E\	.	.
=73-	=73-	=73-	=73-
.	2F#X\	1B	.
.	2BB/	.	.
1EEl	1BBl	1Bl	1bl
==	==	==	==
*-	*-	*-	*-
!!!system-decoration: *
!!!RDF**kern: > = above
!!!RDF**kern: < = below
!!!RDF**kern: l = terminal long
!!!ENC: Anastazja Marusiak
!!!END: 2021-12-10
!!!ENC: Andrzej Kubiczek
!!!END: 2021-12-20
